src/assets/img/banks-logo/svg/sparebank1.svg

<svg height="19" viewBox="0 0 86 19" width="86" xmlns="http://www.w3.org/2000/svg"><g fill="#fff" fill-rule="evenodd"><path d="m3.66411699 14.7182227c-1.73082115 0-3.10224972-.3992126-3.35534309-.4791901-.13329583-.0533183-.19977502-.1596175-.19977502-.2794151v-.0664791l.17311586-.8790777c.02665916-.1329583.11979752-.1727784.22643419-.1727784.02665917 0 .05331834 0 .09313836.0131609.27975253.0533183 1.63768279.4393701 2.915973.4393701 1.09167604 0 2.06355456-.3195726 2.06355456-1.4510686 0-1.1453319-.99820023-1.2647919-2.28998875-1.4514061-1.43790776-.2132734-3.28852644-.5993251-3.28852644-2.86299214 0-2.32980878 1.73082115-2.94229472 3.78121485-2.94229472 1.55804275 0 2.84949381.37289089 3.14206974.45253094.15995501.04015748.23993251.14679415.23993251.27975253v.06647919l-.18627672.8655793c-.01349831.09313836-.10663667.18627672-.21327334.18627672-.01316085 0-.02665916-.01316086-.03982002-.01316086-.63914511-.13329584-1.62452193-.39955005-2.79617548-.39955005-.98537682 0-2.02373453.18661417-2.02373453 1.30494938 0 1.10517435 1.11833521 1.2647919 2.30348706 1.43790776 1.55770529.23959505 3.32834646.46602924 3.32834646 2.94263215 0 2.3298088-1.89043869 3.0087739-3.8743532 3.0087739"/><path d="m20.0355456 11.1769404-1.6511811.2662542c-.5460068.07964-1.0518561.1596175-1.0518561 1.0248594 0 1.0386952.8389202 1.1186727 1.4780653 1.1186727.5190101 0 .9452193-.0931384 1.2249719-.1866142zm.5456692 3.3816648c-.4660292.1066366-1.1051743.1862767-1.8506186.1862767-1.4379078 0-3.2088864-.1461192-3.2088864-2.2633296 0-1.7176603 1.0785152-1.9035995 2.1438695-2.0770529l2.3699663-.3863892v-.42587173c0-.37289089-.0401575-.63914511-.3728909-.7856018-.2132734-.09313836-.5328459-.13295838-1.012036-.13295838-.9053994 0-1.8907762.26625422-2.2899888.37255343-.0401575 0-.0664792.01349831-.0931383.01349831-.0668167 0-.1332959-.02665916-.1467942-.11979752l-.1862767-.82542182v-.05331834c0-.11979752.0934758-.17311586.159955-.19977503.3195726-.11979752 1.544207-.45286839 2.9024747-.45286839.9452193 0 1.5843644.13329584 2.0105737.37289089.6789651.37289089.8122609.99853768.8122609 1.71766029v3.67491559c0 .9985377-.3330708 1.1716536-1.2384702 1.3845895z"/><path d="m26.5697413 8.7799775c-.8119235 0-1.504387.07997751-1.8772779.17311586v5.41923514c0 .1197975-.0799775.199775-.1994375.199775h-1.3582677c-.0799775 0-.2264342-.0799775-.2264342-.199775v-5.75196854c0-.51934759.3060742-.67896513.9452193-.86557931.5858268-.18627671 1.5313836-.31923509 2.2903262-.33273341h.2260968c.1866141 0 .1866141 0 .2797525.03982003.0533183.02665916.1197975.0799775.1197975.21293588v.8655793c0 .13329584-.0131608.23959505-.199775.23959505"/><path d="m31.6613048 9.60573678c-.1731158-.73228346-.5723284-.97221597-1.3579302-.97221597-.8922385 0-1.2651294.26625422-1.4115861.93205849-.0931383.37289089-.0931383.7592801-.1062992 1.1983127l2.9824522-.0134983c0-.4255343-.0134983-.78526434-.1066367-1.14465692zm1.8772779 1.98391452c0 .1461192-.0799775.3060742-.2794151.3060742h-4.4605174c0 .612486.1731158.9455568.5325084 1.2249719.3462317.2794151.852081.3992126 1.5712036.3992126.8257593 0 1.4510686-.1994376 1.864117-.3195725.0266592-.0131609.03982-.0131609.0664792-.0131609.0799775 0 .1464567.0533183.1866142.1866142l.1727784.6786276c0 .0134984.0134983.040495.0134983.0668167 0 .1066367-.0664792.1596175-.159955.199775-.452531.1862767-1.3579303.4258718-2.4097863.4258718-2.6095613 0-3.6347582-1.0251969-3.6347582-3.6344207 0-2.5032621.692126-3.70191227 3.2885265-3.70191227 1.3447694 0 2.1701912.34623172 2.6497188.98537683.4525309.59932508.5989876 1.45140607.5989876 2.55624294z"/><path d="m48.1393701 11.1769404-1.6508437.2662542c-.5460067.07964-1.051856.1596175-1.051856 1.0248594 0 1.0386952.8385827 1.1186727 1.4777278 1.1186727.5190101 0 .9452193-.0931384 1.2249719-.1866142zm.5456693 3.3816648c-.4656918.1066366-1.1051744.1862767-1.8506187.1862767-1.4382452 0-3.2088864-.1461192-3.2088864-2.2633296 0-1.7176603 1.0788527-1.9035995 2.1438695-2.0770529l2.3699663-.3863892v-.42587173c0-.37289089-.0401575-.63914511-.3728909-.7856018-.2129359-.09313836-.5325084-.13295838-1.0116985-.13295838-.9057368 0-1.8911137.26625422-2.2903263.37255343-.03982 0-.0668166.01349831-.0931383.01349831-.0664792 0-.1329584-.02665916-.1464567-.11979752l-.1862767-.82542182v-.05331834c0-.11979752.0928009-.17311586.1596175-.19977503.3195726-.11979752 1.5445445-.45286839 2.9024747-.45286839.9452194 0 1.5843645.13329584 2.0105737.37289089.6793026.37289089.812261.99853768.812261 1.71766029v3.67491559c0 .9985377-.3330709 1.1716536-1.2384702 1.3845895z"/><path d="m57.0438695 14.5721035h-1.3714286c-.1201349 0-.2129358-.0799775-.2129358-.199775v-4.70011253c0-.77244094-.2929134-1.03869516-.9985377-1.03869516-.7991001 0-1.664342.2264342-1.664342.2264342v5.51237349c0 .1197975-.0799775.199775-.199775.199775h-1.3582677c-.1332959 0-.2260968-.0799775-.2260968-.199775v-5.73880769c0-.50584927.2527559-.67896513.9985377-.87874016.6789652-.18627671 1.7973004-.34623172 2.6493813-.34623172 1.664342 0 2.5832396.42620923 2.5832396 2.02373453v4.94004504c0 .1197975-.0799775.199775-.199775.199775"/><path d="m64.7645669 14.4519685c0 .0533183-.0529808.120135-.1332958.120135h-1.7841395c-.0664792 0-.1329584 0-.199775-.0799775l-2.0635546-2.8096738h-.4525309v2.6898763c0 .1197975-.0668167.199775-.199775.199775h-1.3714286c-.1194601 0-.2132733-.0799775-.2132733-.199775v-9.30708666c0-.15961754.0668166-.23959505.2267716-.27941507l1.3046119-.22643419h.0533184c.1197975 0 .199775.0799775.199775.22643419v5.69831273h.4525309l2.1040495-2.80933635c.0529809-.07964005.1062992-.0928009.1727784-.0928009l1.624522.03982002c.0931383 0 .1329583.06647919.1329583.11979753 0 .02665917-.0131608.03982002-.0266591.06647919l-2.516423 3.16906641 2.6632171 3.4083239c.0131609.0134983.0263217.0401575.0263217.0664792"/><path d="m11.5515186 13.51991c-.7187852 0-1.2647919-.1592801-1.2647919-.1592801v-4.48717658s.7856018-.21293588 1.3977502-.21293588c1.012036 0 1.4514061.22609673 1.4514061 2.38312706 0 2.0237346-.3728909 2.4762655-1.5843644 2.4762655zm.5058492-6.11136107c-.891901 0-1.9170978.14679415-2.71586049.42620923-.59932508.18627671-.83892013.38605174-.83892013 1.07851518v8.24173226c0 .1329584.10427446.2419573.29628796.2071991.19167604-.0344207 1.26141736-.232171 1.26141736-.232171.159955-.0266591.2264342-.1066366.2264342-.2662542v-2.3213723c.4724409.1150731 1.0683914.2024747 1.7308211.2024747 2.4766029 0 2.9422947-1.5577053 2.9422947-3.6614173 0-2.11687292-.3327334-3.67491567-2.9024747-3.67491567z"/><path d="m39.1505062 10.2445444-2.5029246-.07964v3.0354331h2.5029246c1.3447694 0 1.7841395-.5854894 1.7841395-1.3980878 0-1.0913386-.3593926-1.5178852-1.7841395-1.5577053zm.0664792-4.14060739h-2.5694038v2.84915635l2.4766029-.10629921c1.0116985-.04015748 1.5310461-.39955006 1.5310461-1.41124859 0-.93239595-.4528684-1.33160855-1.4382452-1.33160855zm.1734533 8.46816649h-4.4338583c-.120135 0-.2264342-.0934758-.2264342-.2129359v-9.41372328c0-.11979753.1062992-.21293588.2264342-.21293588h4.4470192c2.2515185 0 3.1687289.88278965 3.1687289 2.48166479 0 1.41124859-.7839146 1.91642295-1.9970754 2.26366704 1.3467941.2223847 2.3301462.95331833 2.3301462 2.52418443 0 1.7841395-1.251631 2.5700788-3.5149606 2.5700788z"/><path d="m76.1082115.04420697c-.9894263 0-1.9427447.15455569-2.8383577.43869517 3.7690663-.8176603 7.5050618.73498312 8.8508436 3.9151856 1.5553431 3.67559055-.6712036 8.13138356-4.9734533 9.95196846-3.8588302 1.6329584-8.075703.5895389-10.0262092-2.295388 1.1409449 3.8861642 4.731496 6.7248594 8.9871766 6.7248594 5.1735658 0 9.367829-4.1939258 9.367829-9.36782906 0-5.17356581-4.1942632-9.36749157-9.367829-9.36749157"/><path d="m77.1472441 14.3500562c-3.8588302 1.6329584-8.075703.5895389-10.0262092-2.295388-.2460068-.8385827-.3806524-1.7247469-.3806524-2.64296966 0-4.18380203 2.7438695-7.72609674 6.5294713-8.9287964 3.7690663-.8176603 7.5050618.73498312 8.8508436 3.9151856 1.5553431 3.67559055-.6712036 8.13138356-4.9734533 9.95196846zm1.0150731-10.6700787h-2.1779527c-.1555681 0-.2429697.03475816-.3820023.08672666l-2.8103487 1.44668167c-.1731159.06985377-.2426322.17345332-.2426322.34724409v1.57626547c0 .18526434.1505062.33475815.3350956.33475815h1.7986502v7.55534306c.8213723-.1140607 1.6505062-.3327334 2.464117-.6769404.4815523-.2038245.9354331-.4420697 1.3623172-.7069741v-9.61653542c0-.19100112-.1559055-.34656918-.3472441-.34656918z"/></g></svg>

<?xml version="1.0" encoding="UTF-8"?>
<svg width="86px" height="19px" viewBox="0 0 86 19" version="1.1" xmlns="http://www.w3.org/2000/svg" xmlns:xlink="http://www.w3.org/1999/xlink">
    <!-- Generator: Sketch 47.1 (45422) - http://www.bohemiancoding.com/sketch -->
    <title>cmyk_SpareBank1_pos</title>
    <desc>Created with Sketch.</desc>
    <defs></defs>
    <g id="mobile" stroke="none" stroke-width="1" fill="none" fill-rule="evenodd">
        <g id="frontpage" transform="translate(-52.000000, -418.000000)" fill="#FFFFFF">
            <g id="Group-22" transform="translate(20.000000, 401.000000)">
                <g id="Group-19">
                    <g id="cmyk_SpareBank1_pos" transform="translate(32.000000, 17.000000)">
                        <path d="M3.66411699,14.7182227 C1.93329584,14.7182227 0.561867267,14.3190101 0.308773903,14.2390326 C0.175478065,14.1857143 0.108998875,14.0794151 0.108998875,13.9596175 L0.108998875,13.8931384 L0.282114736,13.0140607 C0.308773903,12.8811024 0.401912261,12.8412823 0.508548931,12.8412823 C0.535208099,12.8412823 0.561867267,12.8412823 0.601687289,12.8544432 C0.88143982,12.9077615 2.23937008,13.2938133 3.51766029,13.2938133 C4.60933633,13.2938133 5.58121485,12.9742407 5.58121485,11.8427447 C5.58121485,10.6974128 4.58301462,10.5779528 3.2912261,10.3913386 C1.85331834,10.1780652 0.00269966254,9.7920135 0.00269966254,7.52834646 C0.00269966254,5.19853768 1.73352081,4.58605174 3.78391451,4.58605174 C5.34195726,4.58605174 6.63340832,4.95894263 6.92598425,5.03858268 C7.08593926,5.07874016 7.16591676,5.18537683 7.16591676,5.31833521 L7.16591676,5.3848144 L6.97964004,6.2503937 C6.96614173,6.34353206 6.87300337,6.43667042 6.7663667,6.43667042 C6.75320585,6.43667042 6.73970754,6.42350956 6.72654668,6.42350956 C6.08740157,6.29021372 5.10202475,6.02395951 3.9303712,6.02395951 C2.94499438,6.02395951 1.90663667,6.21057368 1.90663667,7.32890889 C1.90663667,8.43408324 3.02497188,8.59370079 4.21012373,8.76681665 C5.76782902,9.0064117 7.53847019,9.23284589 7.53847019,11.7094488 C7.53847019,14.0392576 5.6480315,14.7182227 3.66411699,14.7182227" id="Fill-1"></path>
                        <path d="M20.0355456,11.1769404 L18.3843645,11.4431946 C17.8383577,11.5228346 17.3325084,11.6028121 17.3325084,12.468054 C17.3325084,13.5067492 18.1714286,13.5867267 18.8105737,13.5867267 C19.3295838,13.5867267 19.755793,13.4935883 20.0355456,13.4001125 L20.0355456,11.1769404 Z M20.5812148,14.5586052 C20.1151856,14.6652418 19.4760405,14.7448819 18.7305962,14.7448819 C17.2926884,14.7448819 15.5217098,14.5987627 15.5217098,12.4815523 C15.5217098,10.763892 16.600225,10.5779528 17.6655793,10.4044994 L20.0355456,10.0181102 L20.0355456,9.59223847 C20.0355456,9.21934758 19.9953881,8.95309336 19.6626547,8.80663667 C19.4493813,8.71349831 19.1298088,8.67367829 18.6506187,8.67367829 C17.7452193,8.67367829 16.7598425,8.93993251 16.3606299,9.04623172 C16.3204724,9.04623172 16.2941507,9.05973003 16.2674916,9.05973003 C16.2006749,9.05973003 16.1341957,9.03307087 16.1206974,8.93993251 L15.9344207,8.11451069 L15.9344207,8.06119235 C15.9344207,7.94139483 16.0278965,7.88807649 16.0943757,7.86141732 C16.4139483,7.7416198 17.6385827,7.40854893 18.9968504,7.40854893 C19.9420697,7.40854893 20.5812148,7.54184477 21.0074241,7.78143982 C21.6863892,8.15433071 21.819685,8.7799775 21.819685,9.49910011 L21.819685,13.1740157 C21.819685,14.1725534 21.4866142,14.3456693 20.5812148,14.5586052 L20.5812148,14.5586052 Z" id="Fill-2"></path>
                        <path d="M26.5697413,8.7799775 C25.7578178,8.7799775 25.0653543,8.85995501 24.6924634,8.95309336 L24.6924634,14.3723285 C24.6924634,14.492126 24.6124859,14.5721035 24.4930259,14.5721035 L23.1347582,14.5721035 C23.0547807,14.5721035 22.908324,14.492126 22.908324,14.3723285 L22.908324,8.62035996 C22.908324,8.10101237 23.2143982,7.94139483 23.8535433,7.75478065 C24.4393701,7.56850394 25.3849269,7.43554556 26.1438695,7.42204724 L26.3699663,7.42204724 C26.5565804,7.42204724 26.5565804,7.42204724 26.6497188,7.46186727 C26.7030371,7.48852643 26.7695163,7.54184477 26.7695163,7.67480315 L26.7695163,8.54038245 C26.7695163,8.67367829 26.7563555,8.7799775 26.5697413,8.7799775" id="Fill-3"></path>
                        <path d="M31.6613048,9.60573678 C31.488189,8.87345332 31.0889764,8.63352081 30.3033746,8.63352081 C29.4111361,8.63352081 29.0382452,8.89977503 28.8917885,9.5655793 C28.7986502,9.93847019 28.7986502,10.3248594 28.7854893,10.763892 L31.7679415,10.7503937 C31.7679415,10.3248594 31.7544432,9.96512936 31.6613048,9.60573678 Z M33.5385827,11.5896513 C33.5385827,11.7357705 33.4586052,11.8957255 33.2591676,11.8957255 L28.7986502,11.8957255 C28.7986502,12.5082115 28.971766,12.8412823 29.3311586,13.1206974 C29.6773903,13.4001125 30.1832396,13.51991 30.9023622,13.51991 C31.7281215,13.51991 32.3534308,13.3204724 32.7664792,13.2003375 C32.7931384,13.1871766 32.8062992,13.1871766 32.8329584,13.1871766 C32.9129359,13.1871766 32.9794151,13.2404949 33.0195726,13.3737908 L33.192351,14.0524184 C33.192351,14.0659168 33.2058493,14.0929134 33.2058493,14.1192351 C33.2058493,14.2258718 33.1393701,14.2788526 33.0458943,14.3190101 C32.5933633,14.5052868 31.687964,14.7448819 30.636108,14.7448819 C28.0265467,14.7448819 27.0013498,13.719685 27.0013498,11.1104612 C27.0013498,8.6071991 27.6934758,7.40854893 30.2898763,7.40854893 C31.6346457,7.40854893 32.4600675,7.75478065 32.9395951,8.39392576 C33.392126,8.99325084 33.5385827,9.84533183 33.5385827,10.9501687 L33.5385827,11.5896513 L33.5385827,11.5896513 Z" id="Fill-4"></path>
                        <path d="M48.1393701,11.1769404 L46.4885264,11.4431946 C45.9425197,11.5228346 45.4366704,11.6028121 45.4366704,12.468054 C45.4366704,13.5067492 46.2752531,13.5867267 46.9143982,13.5867267 C47.4334083,13.5867267 47.8596175,13.4935883 48.1393701,13.4001125 L48.1393701,11.1769404 Z M48.6850394,14.5586052 C48.2193476,14.6652418 47.579865,14.7448819 46.8344207,14.7448819 C45.3961755,14.7448819 43.6255343,14.5987627 43.6255343,12.4815523 C43.6255343,10.763892 44.704387,10.5779528 45.7694038,10.4044994 L48.1393701,10.0181102 L48.1393701,9.59223847 C48.1393701,9.21934758 48.0992126,8.95309336 47.7664792,8.80663667 C47.5535433,8.71349831 47.2339708,8.67367829 46.7547807,8.67367829 C45.8490439,8.67367829 44.863667,8.93993251 44.4644544,9.04623172 C44.4246344,9.04623172 44.3976378,9.05973003 44.3713161,9.05973003 C44.3048369,9.05973003 44.2383577,9.03307087 44.2248594,8.93993251 L44.0385827,8.11451069 L44.0385827,8.06119235 C44.0385827,7.94139483 44.1313836,7.88807649 44.1982002,7.86141732 C44.5177728,7.7416198 45.7427447,7.40854893 47.1006749,7.40854893 C48.0458943,7.40854893 48.6850394,7.54184477 49.1112486,7.78143982 C49.7905512,8.15433071 49.9235096,8.7799775 49.9235096,9.49910011 L49.9235096,13.1740157 C49.9235096,14.1725534 49.5904387,14.3456693 48.6850394,14.5586052 L48.6850394,14.5586052 Z" id="Fill-5"></path>
                        <path d="M57.0438695,14.5721035 L55.6724409,14.5721035 C55.552306,14.5721035 55.4595051,14.492126 55.4595051,14.3723285 L55.4595051,9.67221597 C55.4595051,8.89977503 55.1665917,8.63352081 54.4609674,8.63352081 C53.6618673,8.63352081 52.7966254,8.85995501 52.7966254,8.85995501 L52.7966254,14.3723285 C52.7966254,14.492126 52.7166479,14.5721035 52.5968504,14.5721035 L51.2385827,14.5721035 C51.1052868,14.5721035 51.0124859,14.492126 51.0124859,14.3723285 L51.0124859,8.63352081 C51.0124859,8.12767154 51.2652418,7.95455568 52.0110236,7.75478065 C52.6899888,7.56850394 53.808324,7.40854893 54.6604049,7.40854893 C56.3247469,7.40854893 57.2436445,7.83475816 57.2436445,9.43228346 L57.2436445,14.3723285 C57.2436445,14.492126 57.163667,14.5721035 57.0438695,14.5721035" id="Fill-6"></path>
                        <path d="M64.7645669,14.4519685 C64.7645669,14.5052868 64.7115861,14.5721035 64.6312711,14.5721035 L62.8471316,14.5721035 C62.7806524,14.5721035 62.7141732,14.5721035 62.6473566,14.492126 L60.583802,11.6824522 L60.1312711,11.6824522 L60.1312711,14.3723285 C60.1312711,14.492126 60.0644544,14.5721035 59.9314961,14.5721035 L58.5600675,14.5721035 C58.4406074,14.5721035 58.3467942,14.492126 58.3467942,14.3723285 L58.3467942,5.06524184 C58.3467942,4.9056243 58.4136108,4.82564679 58.5735658,4.78582677 L59.8781777,4.55939258 L59.9314961,4.55939258 C60.0512936,4.55939258 60.1312711,4.63937008 60.1312711,4.78582677 L60.1312711,10.4841395 L60.583802,10.4841395 L62.6878515,7.67480315 C62.7408324,7.5951631 62.7941507,7.58200225 62.8606299,7.58200225 L64.4851519,7.62182227 C64.5782902,7.62182227 64.6181102,7.68830146 64.6181102,7.7416198 C64.6181102,7.76827897 64.6049494,7.78143982 64.5914511,7.80809899 L62.0750281,10.9771654 L64.7382452,14.3854893 C64.7514061,14.3989876 64.7645669,14.4256468 64.7645669,14.4519685" id="Fill-7"></path>
                        <path d="M11.5515186,13.51991 C10.8327334,13.51991 10.2867267,13.3606299 10.2867267,13.3606299 L10.2867267,8.87345332 C10.2867267,8.87345332 11.0723285,8.66051744 11.6844769,8.66051744 C12.6965129,8.66051744 13.135883,8.88661417 13.135883,11.0436445 C13.135883,13.0673791 12.7629921,13.51991 11.5515186,13.51991 Z M12.0573678,7.40854893 C11.1654668,7.40854893 10.14027,7.55534308 9.34150731,7.83475816 C8.74218223,8.02103487 8.50258718,8.2208099 8.50258718,8.91327334 L8.50258718,17.1550056 C8.50258718,17.287964 8.60686164,17.3969629 8.79887514,17.3622047 C8.99055118,17.327784 10.0602925,17.1300337 10.0602925,17.1300337 C10.2202475,17.1033746 10.2867267,17.0233971 10.2867267,16.8637795 L10.2867267,14.5424072 C10.7591676,14.6574803 11.3551181,14.7448819 12.0175478,14.7448819 C14.4941507,14.7448819 14.9598425,13.1871766 14.9598425,11.0834646 C14.9598425,8.96659168 14.6271091,7.40854893 12.0573678,7.40854893 L12.0573678,7.40854893 Z" id="Fill-8"></path>
                        <path d="M39.1505062,10.2445444 L36.6475816,10.1649044 L36.6475816,13.2003375 L39.1505062,13.2003375 C40.4952756,13.2003375 40.9346457,12.6148481 40.9346457,11.8022497 C40.9346457,10.7109111 40.5752531,10.2843645 39.1505062,10.2445444 Z M39.2169854,6.10393701 L36.6475816,6.10393701 L36.6475816,8.95309336 L39.1241845,8.84679415 C40.135883,8.80663667 40.6552306,8.44724409 40.6552306,7.43554556 C40.6552306,6.50314961 40.2023622,6.10393701 39.2169854,6.10393701 Z M39.3904387,14.5721035 L34.9565804,14.5721035 C34.8364454,14.5721035 34.7301462,14.4786277 34.7301462,14.3591676 L34.7301462,4.94544432 C34.7301462,4.82564679 34.8364454,4.73250844 34.9565804,4.73250844 L39.4035996,4.73250844 C41.6551181,4.73250844 42.5723285,5.61529809 42.5723285,7.21417323 C42.5723285,8.62542182 41.7884139,9.13059618 40.5752531,9.47784027 C41.9220472,9.70022497 42.9053993,10.4311586 42.9053993,12.0020247 C42.9053993,13.7861642 41.6537683,14.5721035 39.3904387,14.5721035 L39.3904387,14.5721035 Z" id="Fill-9"></path>
                        <path d="M76.1082115,0.0442069741 C75.1187852,0.0442069741 74.1654668,0.198762655 73.2698538,0.482902137 C77.0389201,-0.334758155 80.7749156,1.21788526 82.1206974,4.39808774 C83.6760405,8.07367829 81.4494938,12.5294713 77.1472441,14.3500562 C73.2884139,15.9830146 69.0715411,14.9395951 67.1210349,12.0546682 C68.2619798,15.9408324 71.8525309,18.7795276 76.1082115,18.7795276 C81.2817773,18.7795276 85.4760405,14.5856018 85.4760405,9.41169854 C85.4760405,4.23813273 81.2817773,0.0442069741 76.1082115,0.0442069741" id="Fill-10"></path>
                        <path d="M77.1472441,14.3500562 C73.2884139,15.9830146 69.0715411,14.9395951 67.1210349,12.0546682 C66.8750281,11.2160855 66.7403825,10.3299213 66.7403825,9.41169854 C66.7403825,5.22789651 69.484252,1.6856018 73.2698538,0.482902137 C77.0389201,-0.334758155 80.7749156,1.21788526 82.1206974,4.39808774 C83.6760405,8.07367829 81.4494938,12.5294713 77.1472441,14.3500562 Z M78.1623172,3.6799775 L75.9843645,3.6799775 C75.8287964,3.6799775 75.7413948,3.71473566 75.6023622,3.76670416 L72.7920135,5.21338583 C72.6188976,5.2832396 72.5493813,5.38683915 72.5493813,5.56062992 L72.5493813,7.13689539 C72.5493813,7.32215973 72.6998875,7.47165354 72.8844769,7.47165354 L74.6831271,7.47165354 L74.6831271,15.0269966 C75.5044994,14.9129359 76.3336333,14.6942632 77.1472441,14.3500562 C77.6287964,14.1462317 78.0826772,13.9079865 78.5095613,13.6430821 L78.5095613,4.02654668 C78.5095613,3.83554556 78.3536558,3.6799775 78.1623172,3.6799775 Z" id="Combined-Shape"></path>
                    </g>
                </g>
            </g>
        </g>
    </g>
</svg>
